X:1
T:Title
%%score ( 1 2 ) ( 3 4 )
L:1/8
Q:1/4=110
M:4/4
K:D
V:1 treble nm="Grand Piano, Soprano"
V:2 treble 
V:3 bass nm="Choir Pad, Middleham, Wesley"
V:4 bass 
V:1
 [DA]2 [DF]2 [DB]2 [DA]2 | [Gc]2 [Fd]6 | [Dd]2 [Ec]2 [Fd]2 [Ec]2 | [EB]2 [CA]6 | %4
w: By~Samuel~Sebastian~Wesley,~1864 * * *||||
 [DF]2 [DG]2 [DA]2 [DB]2 | [DA]2 G-[CG] [DF]2 [CE]2 | [CA]2 [Dd]2 [DG]2 [DF]2 | [CE]2 D6- | %8
w: ||||
 D2 z2 z4 |] %9
w: |
V:2
 x8 | x8 | x8 | x8 | x8 | z2 .D2 z4 | x8 | x8 | x8 |] %9
V:3
 [D,F,]2 [D,A,]2 [G,,G,]2 [A,,F,]2 | E,A, [D,A,]6 | [F,A,]2 A,2 [D,A,]2 [E,A,]2 | A,^G, [A,,A,]6 | %4
 [D,A,]2 [B,,G,]2 [D,F,]2 G,2 | [F,A,]2 [E,A,]2 [D,A,]2 [A,,A,]2 | A,2 [F,A,]2 [G,B,]2 A,2 | %7
 A,G, [D,F,]6- | [D,F,]2 z2 z4 |] %9
V:4
 x8 | A,,2 z2 z4 | x8 | E,2 z2 z4 | x8 | x8 | x8 | A,,2 z2 z4 | x8 |] %9

